X:1
T:Title
L:1/8
M:4/4
K:C
V:1 treble nm="Grand Piano"
V:1
 z4 z[Q:1/4=100] AAA | A2 E2 F2 GG | F2 E2- EAAA | A2 E2 F2 GG | FE D2- DGGG | G2 DD E2 FF | %6
 E2 D2- DBBB | B2 G2 G2 FG |[M:5/8] F2 E2 z |[M:3/8] A A2 |[M:4/4] A2 A2 B2 cc | B2 A2- AA A2 | %12
 A2 A2 B2 c2 | B2 A2- AG G2 | G2 G2 G2 GG | B4- BB/B/ B2 | B2 G2 G2 FG | F2 E4 z2 |] %18

